fonts/polwgo/uni0057.svg

<svg width="500" height="850" xmlns="http://www.w3.org/2000/svg" xmlns:svg="http://www.w3.org/2000/svg">
    <path d="M-375 850h50v-50l-100-100h-50v50zm350-100v-50h-50l-100 100v50h50z" />
    <path d="M-125 850h-250v-50h250z" />
</svg>

<svg width="500" height="850" xmlns="http://www.w3.org/2000/svg" xmlns:svg="http://www.w3.org/2000/svg">
    <path
        d="M -475 700 L -475 750 L -375 850 L -325 850 L -175 850 L -125 850 L -25 750 L -25 700 L -75 700 L -175 800 L -325 800 L -425 700 L -475 700 z " />
</svg>
